svg/blobs-icons/no-decorations/box.svg

<svg xmlns="http://www.w3.org/2000/svg" xmlns:xlink="http://www.w3.org/1999/xlink" preserveAspectRatio="xMidYMid" width="216" height="195" viewBox="0 0 216 195"><defs><style>.cls-3{fill:#fbb713}.cls-4{fill:#000;opacity:.45}.cls-7{fill:#000;opacity:.35}.cls-8{fill:#2476ff}</style></defs><g id="group-127svg"><path d="M171.722 50.559S215.14-.001 215.14-.001 215.54 116.237 215.54 116.237C215.54 117.173 215.294 118.1 214.83 118.91l-43.108 75.435s0-143.786.0-143.786.0.0.0.0z" id="path-1" class="cls-3" fill-rule="evenodd"/><path d="M171.722 50.559S215.14-.001 215.14-.001 215.54 116.237 215.54 116.237C215.54 117.173 215.294 118.1 214.83 118.91l-43.108 75.435s0-143.786.0-143.786.0.0.0.0z" id="path-2" class="cls-4" fill-rule="evenodd"/><path d="M0 50.559S63.925-.001 63.925-.001s151.215.0 151.215.0-43.179 50.56-43.179 50.56S0 50.559.0 50.559z" id="path-3" class="cls-3" fill-rule="evenodd"/><path d="M171.722 194.345S0 194.345.0 194.345.0 50.559.0 50.559s171.722.0 171.722.0.0 143.786.0 143.786z" id="path-4" class="cls-3" fill-rule="evenodd"/><path d="M171.722 194.345S0 194.345.0 194.345.0 50.559.0 50.559s171.722.0 171.722.0.0 143.786.0 143.786z" id="path-5" class="cls-7" fill-rule="evenodd"/><path d="M75.126 50.559S125.371.317 125.371.317s24.06.0 24.06.0S99.712 50.559 99.712 50.559s-24.586.0-24.586.0z" id="path-6" class="cls-8" fill-rule="evenodd"/><path d="M99.712 50.559s0 143.786.0 143.786-24.586.0-24.586.0.0-143.786.0-143.786 24.586.0 24.586.0z" id="path-7" class="cls-8" fill-rule="evenodd"/><path d="M99.712 50.559s0 143.786.0 143.786-24.586.0-24.586.0.0-143.786.0-143.786 24.586.0 24.586.0z" id="path-8" class="cls-7" fill-rule="evenodd"/></g></svg>

<svg xmlns="http://www.w3.org/2000/svg" xmlns:xlink="http://www.w3.org/1999/xlink" preserveAspectRatio="xMidYMid" width="216" height="195" viewBox="0 0 216 195">
  <defs>
    <style>

      .cls-3 {
        fill: #fbb713;
      }

      .cls-4 {
        fill: #000000;
        opacity: 0.45;
      }

      .cls-7 {
        fill: #000000;
        opacity: 0.35;
      }

      .cls-8 {
        fill: #2476ff;
      }
    </style>
  </defs>
  <g id="group-127svg">
    <path d="M171.722,50.559 C171.722,50.559 215.140,-0.001 215.140,-0.001 C215.140,-0.001 215.540,116.237 215.540,116.237 C215.540,117.173 215.294,118.100 214.830,118.910 C214.830,118.910 171.722,194.345 171.722,194.345 C171.722,194.345 171.722,50.559 171.722,50.559 C171.722,50.559 171.722,50.559 171.722,50.559 Z" id="path-1" class="cls-3" fill-rule="evenodd"/>
    <path d="M171.722,50.559 C171.722,50.559 215.140,-0.001 215.140,-0.001 C215.140,-0.001 215.540,116.237 215.540,116.237 C215.540,117.173 215.294,118.100 214.830,118.910 C214.830,118.910 171.722,194.345 171.722,194.345 C171.722,194.345 171.722,50.559 171.722,50.559 C171.722,50.559 171.722,50.559 171.722,50.559 Z" id="path-2" class="cls-4" fill-rule="evenodd"/>
    <path d="M0.000,50.559 C0.000,50.559 63.925,-0.001 63.925,-0.001 C63.925,-0.001 215.140,-0.001 215.140,-0.001 C215.140,-0.001 171.961,50.559 171.961,50.559 C171.961,50.559 0.000,50.559 0.000,50.559 Z" id="path-3" class="cls-3" fill-rule="evenodd"/>
    <path d="M171.722,194.345 C171.722,194.345 0.000,194.345 0.000,194.345 C0.000,194.345 0.000,50.559 0.000,50.559 C0.000,50.559 171.722,50.559 171.722,50.559 C171.722,50.559 171.722,194.345 171.722,194.345 Z" id="path-4" class="cls-3" fill-rule="evenodd"/>
    <path d="M171.722,194.345 C171.722,194.345 0.000,194.345 0.000,194.345 C0.000,194.345 0.000,50.559 0.000,50.559 C0.000,50.559 171.722,50.559 171.722,50.559 C171.722,50.559 171.722,194.345 171.722,194.345 Z" id="path-5" class="cls-7" fill-rule="evenodd"/>
    <path d="M75.126,50.559 C75.126,50.559 125.371,0.317 125.371,0.317 C125.371,0.317 149.431,0.317 149.431,0.317 C149.431,0.317 99.712,50.559 99.712,50.559 C99.712,50.559 75.126,50.559 75.126,50.559 Z" id="path-6" class="cls-8" fill-rule="evenodd"/>
    <path d="M99.712,50.559 C99.712,50.559 99.712,194.345 99.712,194.345 C99.712,194.345 75.126,194.345 75.126,194.345 C75.126,194.345 75.126,50.559 75.126,50.559 C75.126,50.559 99.712,50.559 99.712,50.559 Z" id="path-7" class="cls-8" fill-rule="evenodd"/>
    <path d="M99.712,50.559 C99.712,50.559 99.712,194.345 99.712,194.345 C99.712,194.345 75.126,194.345 75.126,194.345 C75.126,194.345 75.126,50.559 75.126,50.559 C75.126,50.559 99.712,50.559 99.712,50.559 Z" id="path-8" class="cls-7" fill-rule="evenodd"/>
  </g>
</svg>
